X: 27265
T: Miss Stewart's
R: jig
M: 6/8
K: Dmajor
A|d2 d dfd|B2 B Bcd|e2 e efg|fdf ecA|
d2 d dfd|B2 B Bcd|ecA ABc|d3 d2:|
G|F/G/AA A2 d|BGB AFD|{A} GFG B,CD|EFD ECA,|
F/G/AA A2 d|BGB afd|Bge cBc|d3 D2 G|
F/G/AA A2 d|BGB AFD|gfg Bcd|efd ecA|
FAA AdA|ABB Bdf|ecA ABc|d3 D2||

